rake.svg

<svg fill="currentColor" viewBox="0 0 24 24"><path d="M10.5 17.05 9.43 16 22.07 3.35l-1.41-1.42L8 14.58 6.95 13.5c-.78-.77-2.05-.77-2.83 0L2 15.64l.71.7 2.12-2.12.71.71-2.13 2.12.71.71 2.12-2.12.71.7-2.12 2.12.71.71 2.12-2.12.7.71-2.12 2.12.71.71 2.12-2.13.71.71-2.12 2.12.7.71 2.14-2.12c.77-.78.77-2.05 0-2.83"/></svg>

<svg  viewBox="0 0 24 24" fill="currentColor"><path  d="M10.5 17.05L9.43 16L22.07 3.35L20.66 1.93L8 14.58L6.95 13.5C6.17 12.73 4.9 12.73 4.12 13.5L2 15.64L2.71 16.34L4.83 14.22L5.54 14.93L3.41 17.05L4.12 17.76L6.24 15.64L6.95 16.34L4.83 18.46L5.54 19.17L7.66 17.05L8.36 17.76L6.24 19.88L6.95 20.59L9.07 18.46L9.78 19.17L7.66 21.29L8.36 22L10.5 19.88C11.27 19.1 11.27 17.83 10.5 17.05Z"/></svg>
